assets/icons/close-24.svg

<svg width="24" height="24" viewBox="0 0 24 24" fill="none" xmlns="http://www.w3.org/2000/svg">
<path d="M16.2426 16.2426C15.8521 16.6332 15.2189 16.6332 14.8284 16.2426L12 13.4142L9.17156 16.2427C8.78104 16.6332 8.14787 16.6332 7.75735 16.2427C7.36682 15.8521 7.36682 15.219 7.75735 14.8284L10.5858 12L7.75735 9.17156C7.36682 8.78104 7.36682 8.14787 7.75735 7.75735C8.14787 7.36682 8.78104 7.36682 9.17156 7.75735L12 10.5858L14.8284 7.75737C15.2189 7.36685 15.8521 7.36685 16.2426 7.75737C16.6332 8.1479 16.6332 8.78106 16.2426 9.17159L13.4142 12L16.2426 14.8284C16.6332 15.2189 16.6332 15.8521 16.2426 16.2426Z" fill="#F2F2F2"/>
<path fill-rule="evenodd" clip-rule="evenodd" d="M1 12C1 5.92487 5.92487 1 12 1C18.0751 1 23 5.92487 23 12C23 18.0751 18.0751 23 12 23C5.92487 23 1 18.0751 1 12ZM12 3C7.02944 3 3 7.02944 3 12C3 16.9706 7.02944 21 12 21C16.9706 21 21 16.9706 21 12C21 7.02944 16.9706 3 12 3Z" fill="#F2F2F2"/>
</svg>

<svg xmlns="http://www.w3.org/2000/svg" width="24" height="24" viewBox="0 0 24 24"><path d="M16.243 16.243a1 1 0 01-1.415 0L12 13.414l-2.828 2.829a1 1 0 01-1.415-1.415L10.586 12 7.757 9.172a1 1 0 111.415-1.415L12 10.586l2.828-2.829a1 1 0 111.415 1.415L13.414 12l2.829 2.828a1 1 0 010 1.415z"/><path fill-rule="evenodd" d="M1 12C1 5.925 5.925 1 12 1s11 4.925 11 11-4.925 11-11 11S1 18.075 1 12zm11-9a9 9 0 100 18 9 9 0 000-18z"/></svg>
